X: 31547
T: Padraig O'Keefe's
R: slide
M: 12/8
K: Dmajor
|:FEF A2 F E3 E2 F|G3 GFE F3 F2 A|
d2 e f2 d cBc e2 c|1 B3 BcB A3 A2 G:|2 B3 BcB A3 A2 f||
|:e3 ede f3 fec|d3 dcB c3 c2 A|
d2 e f2 d cBc e2 c|1 B3 BcB A3 A2 f:|2 B3 BcB A3 A2 G||

